icons/lines/scanner.svg

<svg xmlns="http://www.w3.org/2000/svg" width="24" height="24" viewBox="0 0 24 24" fill="none" stroke="currentColor" stroke-width="2" stroke-linecap="round" stroke-linejoin="round">
  <path d="M2 12h20" />
  <path d="M2 15v2c0 3 2 5 5 5h10c3 0 5-2 5-5v-2" />
  <path d="M2 9V7c0-3 2-5 5-5h10c3 0 5 2 5 5v2" />
</svg>

<svg xmlns="http://www.w3.org/2000/svg" width="24" height="24" viewBox="0 0 24 24" fill="none" stroke="currentColor" stroke-width="2" stroke-linecap="round" stroke-linejoin="round" >
  <path d="M2 9V7C2 4 4 2 7 2H17C20 2 22 4 22 7V9" stroke-miterlimit="10"/>
  <path d="M2 15V17C2 20 4 22 7 22H17C20 22 22 20 22 17V15" stroke-miterlimit="10"/>
  <path d="M2 12H22" stroke-miterlimit="10"/>
  </svg>
